X: 569
T: Dilbera Sazın
C: Tanburî İsak
O: Turkey
F: http://compmusic.upf.edu/node/140
N: beyati--sarki--duyek--dilbera_sazin--tanburi_isak
N: makam= beyati
N: form= sarki
N: usul= duyek = 8/4
M: 8/4
L: 1/16
K: C _2/4B   
Q: 1/4=126
%%MIDI tuningsystem comma53
G6 d2 c4 e2 d4 e2 d4 e2 c2 d2 c2  | \
w:   | 
_1/4B2 e2 f2 e2 d2 g4 f2  | e2 f2 e2 d4 _1/4B2 c4  | 
w:   |   | 
e2 d4 G6 d2 c4 e2 d4 d2 c2 f2 e2  | \
w:   | 
c2 d2 c2 _1/4B2 e2 d2 B2 A6 f2 e2 d2 c2 B2 d6 c2 B2 c2 A2 B2 G6 d2 c4 d4 d4 c2 d2 e2 c2 e2 d2 B2  | 
w:   | 
A6 f2 e2 d2 c2 _1/4B2  | A6 f2 e2 f2 g4  | \
w:   |   | 
g4 f2 e2 f4 e2 d2  | e4 d2 c2 d4 c2 _1/4B2  | 
w:   |   | 
A6 c2 _1/4B3A B2 d2  | c6 g2 ^f2 g2 a4  | \
w:   |   | 
a4 g2 ^f2 a4 =f2 e2  | d3c _1/4B2 d2 e2 d2 c4  | 
w:   |   | 
_1/4B2 A6 c2 B3A B2  | c2 d6 e2 d2 c2 d4 G6 d2 c4 e2  | \
w:   |   | 
d4 d2 c2 f2 e2 c2 d2  | 
w:   | 
c2 _1/4B2 e2 d2 B2 A6  | f2 e2 d2 c2 _1/4B2 A6  | \
w:   |   | 
e2 d2 c2 d4 G6  | d2 c4 e2 d4 d2 c2  | 
w:   |   | 
f2 e2 c2 d2 c2 _1/4B2 e2 d2  | _1/4B2 A6 f2 e2 d2 c2  | \
w:   |   | 
_1/4B2 A6 c2 B2 c2 A4 G6 d2 c4 e2  | 
w:   | 
d4 e2 f2 g2 fe d2 c_1/4B  | A4 d2 cd e2 dc c3_1/4B  | \
w:   |   | 
d2 c_1/4B B2 A2 c2 BA B2 A6 z2 G6 d2 c4 e2 d4 e2 f2 g2 fe  | 
w:   | 
d2 c_1/4B A4 d2 cd e2 dc  | c3_1/4B d2 cB B2 A2 c2 BA  | \
w:   |   | 
_1/4B2 A6 z2 |
w:   | 


